X:20
T:Reel 20
M: 4/4
L:1/8
K: D Dorian
A2dBc2AG|FDD2EDCE|DA,A,2FAGE|Fdd^cdefg|agfged^cB|AGEDCA,B,C|DFAdfedB|cAGEFDFA:||:defgafge|dAA2GECE|DGABA3D|EFGFECC2|DEFGAGcA|GFEGFEDF|Adfage^cd|eaagfdd2:|.abc